apps/web/src/client/assets/icon.svg

<svg viewBox="0 0 512 512" fill="none" xmlns="http://www.w3.org/2000/svg">
<rect width="512" height="512" rx="128" fill="url(#paint0_linear_1_2)"/>
<g filter="url(#filter0_d_1_2)">
<path d="M150 135.1C150 127.117 153.191 119.461 158.87 113.816C164.55 108.171 172.253 105 180.286 105H331.714C339.747 105 347.45 108.171 353.13 113.816C358.809 119.461 362 127.117 362 135.1V150.15C362 171.837 352.778 195.059 340.8 215.106C332.014 229.756 321.507 243.315 309.5 255.5C321.496 267.686 331.993 281.246 340.77 295.894C352.778 315.941 362 339.178 362 360.85V375.9C362 383.883 358.809 391.539 353.13 397.184C347.45 402.829 339.747 406 331.714 406H180.286C172.253 406 164.55 402.829 158.87 397.184C153.191 391.539 150 383.883 150 375.9V360.85C150 339.163 159.222 315.941 171.2 295.894C179.986 281.244 190.493 267.684 202.5 255.5C191.052 243.957 180.089 229.915 171.23 215.106C159.222 195.059 150 171.822 150 150.15V135.1Z" fill="white"/>
</g>
<defs>
<filter id="filter0_d_1_2" x="142.6" y="99.6" width="230.8" height="319.8" filterUnits="userSpaceOnUse" color-interpolation-filters="sRGB">
<feFlood flood-opacity="0" result="BackgroundImageFix"/>
<feColorMatrix in="SourceAlpha" type="matrix" values="0 0 0 0 0 0 0 0 0 0 0 0 0 0 0 0 0 0 127 0" result="hardAlpha"/>
<feOffset dx="2" dy="4"/>
<feGaussianBlur stdDeviation="4.7"/>
<feComposite in2="hardAlpha" operator="out"/>
<feColorMatrix type="matrix" values="0 0 0 0 0 0 0 0 0 0 0 0 0 0 0 0 0 0 0.25 0"/>
<feBlend mode="normal" in2="BackgroundImageFix" result="effect1_dropShadow_1_2"/>
<feBlend mode="normal" in="SourceGraphic" in2="effect1_dropShadow_1_2" result="shape"/>
</filter>
<linearGradient id="paint0_linear_1_2" x1="61" y1="36" x2="469" y2="491" gradientUnits="userSpaceOnUse">
<stop stop-color="#FA7C40"/>
<stop offset="1" stop-color="#EC364F"/>
</linearGradient>
</defs>
</svg>

<svg xmlns="http://www.w3.org/2000/svg" fill="none" viewBox="0 0 512 512"><rect width="512" height="512" fill="url(#a)" rx="128"/><g filter="url(#b)"><path fill="#fff" d="M150 135.1c0-7.98 3.2-15.64 8.87-21.28a30.4 30.4 0 0 1 21.42-8.82H331.7c8.04 0 15.74 3.17 21.42 8.82A30 30 0 0 1 362 135.1v15.05c0 21.69-9.22 44.9-21.2 64.96a215 215 0 0 1-31.3 40.39 215 215 0 0 1 31.27 40.4c12 20.04 21.23 43.28 21.23 64.95v15.05c0 7.98-3.2 15.64-8.87 21.28a30.4 30.4 0 0 1-21.42 8.82H180.3a30.4 30.4 0 0 1-21.42-8.82A30 30 0 0 1 150 375.9v-15.05c0-21.69 9.22-44.9 21.2-64.96a215 215 0 0 1 31.3-40.39 216 216 0 0 1-31.27-40.4c-12-20.04-21.23-43.28-21.23-64.95z"/></g><defs><filter id="b" width="230.8" height="319.8" x="142.6" y="99.6" color-interpolation-filters="sRGB" filterUnits="userSpaceOnUse"><feFlood flood-opacity="0" result="BackgroundImageFix"/><feColorMatrix in="SourceAlpha" result="hardAlpha" values="0 0 0 0 0 0 0 0 0 0 0 0 0 0 0 0 0 0 127 0"/><feOffset dx="2" dy="4"/><feGaussianBlur stdDeviation="4.7"/><feComposite in2="hardAlpha" operator="out"/><feColorMatrix values="0 0 0 0 0 0 0 0 0 0 0 0 0 0 0 0 0 0 0.25 0"/><feBlend in2="BackgroundImageFix" result="effect1_dropShadow_1_2"/><feBlend in="SourceGraphic" in2="effect1_dropShadow_1_2" result="shape"/></filter><linearGradient id="a" x1="61" x2="469" y1="36" y2="491" gradientUnits="userSpaceOnUse"><stop stop-color="#fa7c40"/><stop offset="1" stop-color="#ec364f"/></linearGradient></defs></svg>
